packages/icons/svg/Media_Download_App_32px.svg

<svg xmlns="http://www.w3.org/2000/svg" viewBox="0 0 32 32"><path d="M15.29 20.71a1 1 0 001.42 0l4-4a1 1 0 00-1.42-1.42L17 17.59V4a1 1 0 00-2 0v13.59l-2.29-2.3a1 1 0 00-1.42 1.42z"/><path d="M25 5h-1.67a1 1 0 000 2H25v18H7V7h1.67a1 1 0 000-2H7a2 2 0 00-2 2v18a2 2 0 002 2h18a2 2 0 002-2V7a2 2 0 00-2-2z"/></svg>

<svg xmlns="http://www.w3.org/2000/svg" viewBox="0 0 32 32"><defs></defs><g id="Icon"><path  d="M15.29,20.71a1,1,0,0,0,1.42,0l4-4a1,1,0,0,0-1.42-1.42L17,17.59V4a1,1,0,0,0-2,0V17.59l-2.29-2.3a1,1,0,0,0-1.42,1.42Z"/><path  d="M25,5H23.33a1,1,0,0,0,0,2H25V25H7V7H8.67a1,1,0,0,0,0-2H7A2,2,0,0,0,5,7V25a2,2,0,0,0,2,2H25a2,2,0,0,0,2-2V7A2,2,0,0,0,25,5Z"/></g></svg>
